X: 1
T:Big John McNeill
R:Reel
O:Scotland
M:4/4
K:A
A,2CE FECE| AECE FECE| A,2CE FECE| FAGF EDCB,|
A,2CE FECE| AECE FECE| B,DCE DFEG| FGAB cAA2::
eAfA eA(3A/A/A/| eAfA eA(3A/A/A/| \
eAfA eA(3A/A/A/| dBcA BE(3E/E/E/|
eAfA eA(3A/A/A/| eAfA eA(3A/A/A/ \
|1 agag fedc | BAGF E4 \
:|2 agag fedc| BAGF EDCB, |]
